flaticon/file-type/xls.svg

<svg xmlns="http://www.w3.org/2000/svg" width="32" height="32" viewBox="0 0 24 24">
    <path d="M 21.082031 5.042969 L 20.765625 4.722656 L 16.585938 0.546875 L 16.265625 0.226562 C 16.121094 0.0820312 15.921875 0 15.71875 0 L 3.707031 0 C 3.21875 0 2.691406 0.378906 2.691406 1.210938 L 2.691406 23.171875 C 2.691406 23.519531 3.039062 23.855469 3.449219 23.960938 C 3.472656 23.96875 3.492188 23.976562 3.511719 23.980469 C 3.578125 23.992188 3.644531 24 3.707031 24 L 20.292969 24 C 20.355469 24 20.421875 23.992188 20.488281 23.980469 C 20.507812 23.976562 20.527344 23.96875 20.550781 23.960938 C 20.960938 23.855469 21.308594 23.519531 21.308594 23.171875 L 21.308594 5.785156 C 21.308594 5.464844 21.273438 5.230469 21.082031 5.042969 Z M 19.835938 4.964844 L 16.34375 4.964844 L 16.34375 1.476562 Z M 3.707031 23.171875 C 3.679688 23.171875 3.652344 23.160156 3.625 23.152344 C 3.5625 23.121094 3.515625 23.058594 3.515625 22.980469 L 3.515625 16.964844 L 20.484375 16.964844 L 20.484375 22.980469 C 20.484375 23.058594 20.4375 23.121094 20.375 23.152344 C 20.347656 23.160156 20.320312 23.171875 20.292969 23.171875 Z M 3.515625 16.136719 L 3.515625 1.210938 C 3.515625 1.121094 3.53125 0.828125 3.707031 0.828125 L 15.542969 0.828125 C 15.527344 0.878906 15.515625 0.933594 15.515625 0.988281 L 15.515625 5.792969 L 20.320312 5.792969 C 20.375 5.792969 20.429688 5.78125 20.480469 5.769531 C 20.480469 5.773438 20.484375 5.777344 20.484375 5.785156 L 20.484375 16.136719 Z M 3.515625 16.136719"/>
    <path d="M9.199219 18.175781L8.398438 19.871094 8.34375 19.871094 7.609375 18.175781 6.832031 18.175781 7.957031 20.320312 6.902344 22.34375 7.6875 22.34375 8.398438 20.773438 8.457031 20.773438 9.117188 22.34375 9.90625 22.34375 8.847656 20.320312 9.972656 18.175781zM11.601562 18.175781L10.910156 18.175781 10.910156 22.34375 13.519531 22.34375 13.519531 21.828125 11.601562 21.828125zM16.113281 20.300781C15.984375 20.207031 15.84375 20.128906 15.691406 20.0625 15.539062 19.996094 15.402344 19.929688 15.273438 19.859375 15.144531 19.789062 15.035156 19.707031 14.949219 19.613281 14.863281 19.523438 14.820312 19.402344 14.820312 19.25 14.820312 19.191406 14.835938 19.125 14.867188 19.0625 14.894531 18.996094 14.9375 18.933594 14.988281 18.882812 15.042969 18.828125 15.101562 18.785156 15.171875 18.75 15.238281 18.714844 15.3125 18.691406 15.386719 18.683594 15.523438 18.671875 15.632812 18.671875 15.71875 18.679688 15.808594 18.6875 15.875 18.699219 15.929688 18.71875 15.980469 18.738281 16.023438 18.757812 16.050781 18.773438 16.078125 18.792969 16.105469 18.808594 16.128906 18.820312 16.132812 18.816406 16.144531 18.796875 16.160156 18.761719 16.179688 18.730469 16.203125 18.6875 16.230469 18.636719 16.257812 18.585938 16.285156 18.53125 16.316406 18.472656 16.34375 18.414062 16.371094 18.359375 16.394531 18.3125 16.285156 18.238281 16.140625 18.1875 15.964844 18.15625 15.785156 18.125 15.609375 18.105469 15.4375 18.105469 15.269531 18.105469 15.105469 18.132812 14.953125 18.1875 14.800781 18.238281 14.667969 18.316406 14.550781 18.414062 14.4375 18.515625 14.347656 18.636719 14.277344 18.78125 14.210938 18.925781 14.175781 19.085938 14.175781 19.273438 14.175781 19.476562 14.21875 19.644531 14.304688 19.78125 14.390625 19.917969 14.503906 20.035156 14.632812 20.132812 14.765625 20.234375 14.90625 20.320312 15.058594 20.394531 15.207031 20.46875 15.351562 20.542969 15.480469 20.617188 15.609375 20.6875 15.71875 20.769531 15.804688 20.863281 15.890625 20.953125 15.933594 21.0625 15.933594 21.191406 15.933594 21.402344 15.875 21.5625 15.75 21.667969 15.628906 21.777344 15.453125 21.828125 15.222656 21.828125 15.148438 21.828125 15.066406 21.820312 14.980469 21.804688 14.890625 21.792969 14.804688 21.773438 14.71875 21.746094 14.632812 21.722656 14.546875 21.695312 14.46875 21.667969 14.386719 21.640625 14.320312 21.609375 14.265625 21.582031L14.148438 22.066406C14.210938 22.125 14.289062 22.171875 14.378906 22.210938 14.464844 22.25 14.558594 22.28125 14.65625 22.304688 14.753906 22.328125 14.851562 22.34375 14.949219 22.351562 15.042969 22.363281 15.136719 22.367188 15.230469 22.367188 15.441406 22.367188 15.628906 22.335938 15.792969 22.269531 15.960938 22.207031 16.101562 22.121094 16.214844 22.011719 16.328125 21.90625 16.414062 21.78125 16.476562 21.640625 16.539062 21.5 16.570312 21.351562 16.570312 21.203125 16.570312 20.980469 16.527344 20.796875 16.441406 20.65625 16.351562 20.515625 16.242188 20.398438 16.113281 20.300781zM10.136719 5.378906L5.171875 5.378906 5.171875 14.484375 18.828125 14.484375 18.828125 7.035156 10.136719 7.035156zM6 7.863281L9.308594 7.863281 9.308594 8.691406 6 8.691406zM6 9.515625L9.308594 9.515625 9.308594 10.34375 6 10.34375zM6 11.171875L9.308594 11.171875 9.308594 12 6 12zM9.308594 13.65625L6 13.65625 6 12.828125 9.308594 12.828125zM18 13.65625L10.136719 13.65625 10.136719 12.828125 18 12.828125zM18 12L10.136719 12 10.136719 11.171875 18 11.171875zM18 10.34375L10.136719 10.34375 10.136719 9.515625 18 9.515625zM18 7.863281L18 8.691406 10.136719 8.691406 10.136719 7.863281zM6 7.035156L6 6.207031 9.308594 6.207031 9.308594 7.035156zM6 7.035156"/>
</svg>

<svg xmlns="http://www.w3.org/2000/svg" width="32" height="32" viewBox="0 0 24 24">
    <path d="M21.082 5.043l-.316-.32-4.18-4.176-.32-.32A.778.778 0 0 0 15.719 0H3.707c-.488 0-1.016.379-1.016 1.21v21.962c0 .348.348.683.758.789.024.008.043.016.063.02.066.011.133.019.195.019h16.586c.062 0 .129-.008.195-.02.02-.003.04-.011.063-.02.41-.105.758-.44.758-.788V5.785c0-.32-.036-.555-.227-.742zm-1.246-.078h-3.492V1.477zM3.707 23.172c-.027 0-.055-.012-.082-.02a.192.192 0 0 1-.11-.172v-6.015h16.97v6.015c0 .079-.047.141-.11.172-.027.008-.055.02-.082.02zm-.191-7.035V1.21c0-.09.015-.383.191-.383h11.836a.55.55 0 0 0-.027.16v4.805h4.804a.72.72 0 0 0 .16-.023c0 .003.004.007.004.015v10.352zm0 0"/>
    <path d="M9.2 18.176l-.802 1.695h-.054l-.735-1.695h-.777l1.125 2.144-1.055 2.024h.785l.711-1.57h.059l.66 1.57h.79l-1.06-2.024 1.126-2.144zm0 0M11.602 18.176h-.692v4.168h2.61v-.516h-1.918zm0 0M16.113 20.3a2.22 2.22 0 0 0-.422-.238 5.23 5.23 0 0 1-.418-.203 1.244 1.244 0 0 1-.324-.246.504.504 0 0 1-.082-.55.56.56 0 0 1 .121-.18.69.69 0 0 1 .399-.2 1.92 1.92 0 0 1 .332-.003c.09.008.156.02.21.039.051.02.094.039.122.054.027.02.054.036.078.047a.29.29 0 0 0 .031-.058 2.45 2.45 0 0 0 .07-.125c.028-.051.055-.106.086-.164.028-.059.055-.114.079-.16a1.11 1.11 0 0 0-.43-.157 3.087 3.087 0 0 0-.527-.05c-.168 0-.333.027-.485.081-.152.051-.285.13-.402.227a1.173 1.173 0 0 0-.274.367 1.154 1.154 0 0 0-.101.492c0 .204.043.372.129.508.086.137.199.254.328.352.133.101.273.187.426.262.148.074.293.148.421.222.13.07.239.153.325.246.086.09.129.2.129.328 0 .211-.059.372-.184.477-.121.11-.297.16-.527.16-.075 0-.157-.008-.243-.023a1.492 1.492 0 0 1-.261-.059 3.775 3.775 0 0 1-.25-.078 1.513 1.513 0 0 1-.203-.086l-.118.484c.063.059.141.106.23.145.087.039.18.07.278.094.098.023.196.039.293.047.094.011.188.015.281.015.211 0 .399-.031.563-.097a1.2 1.2 0 0 0 .422-.258 1.125 1.125 0 0 0 .355-.809 1.04 1.04 0 0 0-.129-.547 1.36 1.36 0 0 0-.328-.355zm0 0M10.137 5.379H5.172v9.105h13.656V7.035h-8.691zM6 7.863h3.309v.828H6zm0 1.653h3.309v.828H6zm0 1.656h3.309V12H6zm3.309 2.484H6v-.828h3.309zm8.691 0h-7.863v-.828H18zM18 12h-7.863v-.828H18zm0-1.656h-7.863v-.828H18zm0-2.48v.827h-7.863v-.828zM6 7.034v-.828h3.309v.828zm0 0"/>
</svg>
